packages/plugin/src/icon-mask.svg

<svg height="64" viewBox="0 0 64 64" width="64" xmlns="http://www.w3.org/2000/svg"><g fill="#fff"><path d="m36.415.342c5.324-1.426 10.795 1.733 12.222 7.056l1.366 5.102-2.896 10.81-3.607-13.461c-.713-2.661-3.474-4.234-6.165-3.513l-24.759 6.634c-2.691.721-4.295 3.463-3.582 6.125l9.555 35.663c.714 2.661 3.474 4.234 6.166 3.513l24.758-6.634c2.746-.848 4.039-3.297 3.595-6.049l2.9-10.826 2.604 9.715c1.426 5.323-1.733 10.795-7.056 12.221l-25.972 6.96c-5.323 1.426-10.795-1.733-12.221-7.056l-9.935-37.079c-1.427-5.323 1.732-10.795 7.056-12.221z"/><path d="m58.546 3.183c1.678.408 2.731 1.863 2.32 3.403-.412 1.54-9.347 34.521-9.347 34.521-1.438 1.965-2.876 3.928-4.305 5.899-.249.345-.708.227-.738-.228l-.999-7.307s8.927-32.974 9.349-34.521 2.043-2.174 3.72-1.767z"/><path d="m29.787 20.793 9.821-2.631c1.118-.3 2.267.364 2.567 1.482.299 1.117-.364 2.266-1.482 2.566l-9.821 2.632c-1.118.299-2.267-.364-2.566-1.482-.3-1.118.363-2.267 1.481-2.567z"/><path d="m21.898 15.469c.991-.265 2.01.323 2.275 1.313l1.983 7.4c.265.991-.323 2.01-1.313 2.275l-7.401 1.983c-.99.265-2.009-.323-2.274-1.313l-1.983-7.4c-.265-.991.323-2.01 1.313-2.275zm-.785 2.674-4.597 1.232c-.496.133-.79.642-.657 1.137l1.232 4.597c.133.496.642.79 1.137.657l4.597-1.232c.496-.133.79-.642.657-1.137l-1.232-4.597c-.133-.496-.642-.79-1.137-.657z"/><path d="m23.034 44.917 9.097-2.438c1.597-.428 3.238.52 3.666 2.117l.653 2.434c.428 1.597-.52 3.239-2.117 3.667l-9.097 2.437c-1.597.428-3.239-.52-3.667-2.117l-.652-2.434c-.428-1.597.52-3.238 2.117-3.666z"/><path d="m43.327 32.041c.935-.058.591-.191 1.101.104l-1.137 4.245-21.899 5.868c-1.118.299-2.267-.364-2.567-1.482-.299-1.118.364-2.267 1.482-2.566z"/><path d="m18.447 31.27 23.021-6.169c1.118-.299 2.267.364 2.566 1.482.3 1.118-.364 2.267-1.481 2.567l-23.021 6.168c-1.118.3-2.267-.364-2.566-1.482-.3-1.118.364-2.267 1.481-2.566z"/><path d="m27.928 13.854 9.821-2.632c1.118-.299 2.267.364 2.566 1.482.3 1.118-.364 2.267-1.481 2.566l-9.822 2.632c-1.117.299-2.266-.364-2.566-1.482-.3-1.118.364-2.267 1.482-2.566z"/></g></svg>

<?xml version="1.0" encoding="UTF-8"?>
<!DOCTYPE svg PUBLIC "-//W3C//DTD SVG 1.1//EN" "http://www.w3.org/Graphics/SVG/1.1/DTD/svg11.dtd">
<svg version="1.1" xmlns="http://www.w3.org/2000/svg" xmlns:xlink="http://www.w3.org/1999/xlink" x="0" y="0" width="64" height="64" viewBox="0, 0, 64, 64">
  <g id="Freeform">
    <path d="M36.415,0.342 C41.739,-1.084 47.21,2.075 48.637,7.398 L50.003,12.5 L47.107,23.31 L43.5,9.849 C42.787,7.188 40.026,5.615 37.335,6.336 L12.576,12.97 C9.885,13.691 8.281,16.433 8.994,19.095 L18.549,54.758 C19.263,57.419 22.023,58.992 24.715,58.271 L49.473,51.637 C52.219,50.789 53.512,48.34 53.068,45.588 L55.968,34.762 L58.572,44.477 C59.998,49.8 56.839,55.272 51.516,56.698 L25.544,63.658 C20.221,65.084 14.749,61.925 13.323,56.602 L3.388,19.523 C1.961,14.2 5.12,8.728 10.444,7.302 L36.415,0.342 z" fill="#FFFFFF"/>
    <path d="M58.546,3.183 C60.224,3.591 61.277,5.046 60.866,6.586 C60.454,8.126 51.519,41.107 51.519,41.107 L51.519,41.107 C50.081,43.072 48.643,45.035 47.214,47.006 C46.965,47.351 46.506,47.233 46.476,46.778 L45.477,39.471 C45.477,39.471 54.404,6.497 54.826,4.95 C55.248,3.403 56.869,2.776 58.546,3.183 z" fill="#FFFFFF" id="Pencil"/>
    <path d="M29.787,20.793 L39.608,18.162 C40.726,17.862 41.875,18.526 42.175,19.644 L42.175,19.644 C42.474,20.761 41.811,21.91 40.693,22.21 L30.872,24.842 C29.754,25.141 28.605,24.478 28.306,23.36 L28.306,23.36 C28.006,22.242 28.669,21.093 29.787,20.793 z" fill="#FFFFFF"/>
    <path d="M21.898,15.469 C22.889,15.204 23.908,15.792 24.173,16.782 L26.156,24.182 C26.421,25.173 25.833,26.192 24.843,26.457 L17.442,28.44 C16.452,28.705 15.433,28.117 15.168,27.127 L13.185,19.727 C12.92,18.736 13.508,17.717 14.498,17.452 L21.898,15.469 z M21.113,18.143 L16.516,19.375 C16.02,19.508 15.726,20.017 15.859,20.512 L17.091,25.109 C17.224,25.605 17.733,25.899 18.228,25.766 L22.825,24.534 C23.321,24.401 23.615,23.892 23.482,23.397 L22.25,18.8 C22.117,18.304 21.608,18.01 21.113,18.143 z" fill="#FFFFFF"/>
    <path d="M23.034,44.917 L32.131,42.479 C33.728,42.051 35.369,42.999 35.797,44.596 L36.45,47.03 C36.878,48.627 35.93,50.269 34.333,50.697 L25.236,53.134 C23.639,53.562 21.997,52.614 21.569,51.017 L20.917,48.583 C20.489,46.986 21.437,45.345 23.034,44.917 z" fill="#FFFFFF"/>
    <path d="M43.327,32.041 C44.262,31.983 43.918,31.85 44.428,32.145 L43.291,36.39 L21.392,42.258 C20.274,42.557 19.125,41.894 18.825,40.776 C18.526,39.658 19.189,38.509 20.307,38.21 L43.327,32.041 z" fill="#FFFFFF"/>
    <path d="M18.447,31.27 L41.468,25.101 C42.586,24.802 43.735,25.465 44.034,26.583 L44.034,26.583 C44.334,27.701 43.67,28.85 42.553,29.15 L19.532,35.318 C18.414,35.618 17.265,34.954 16.966,33.836 L16.966,33.836 C16.666,32.718 17.33,31.569 18.447,31.27 z" fill="#FFFFFF"/>
    <path d="M27.928,13.854 L37.749,11.222 C38.867,10.923 40.016,11.586 40.315,12.704 L40.315,12.704 C40.615,13.822 39.951,14.971 38.834,15.27 L29.012,17.902 C27.895,18.201 26.746,17.538 26.446,16.42 L26.446,16.42 C26.146,15.302 26.81,14.153 27.928,13.854 z" fill="#FFFFFF"/>
  </g>
</svg>
